X:99
%%etbk:tnset id:34,pos:3,rep:3x,ant:
%%etbk:wsite http://www.thesession.org/tunes/display/302
%%etbk:skill ?
%%etbk:pldat 2013-11-17T16:08,2013-11-13T16:20
T: Maudabawn Chapel
M: 4/4
L: 1/8
R: reel
K: Gmaj
|: "G"!4!G3!1!D !2!EG!1!D!3!B,| !1!G,A,!3!B,!4!D !5!E!3!B,!4!D!3!B,| !1!G,3!4!G !1!G2!2!B!3!d | !5!g3!5!g "C"!1!e!4!aa2 |
| "G"!3!g2!5!b!3!g "C"!1!e2!4!g!2!e | "G"!1!de{g}e!1!d !2!BAB!4!d | "C"!2!egf!5!a !4!ge!1!d!3!B | "D"!2!AcBA !1!G!2!E{G}E!1!D:|
|: "em"!1!E2!3!BE !5!dEBE | !1!E!4!d^cB !1!A!3!F!1!D!3!F | !1!E!2!E!1!EF !3!GFG!5!B | "D"!4!A!2!FF{A}F DFF{A}F |
| "em"!1!E!2!BBA !2!B3 B | -!2!B!1!A!2!G!1!A B!3!^c!1!d!2!e | "D"!3!f2!5!af !4!g!3!f!1!e!3!^c| !4!d!2!B!1!A!3!F !1!DEFD:|
